Resources/Public/Backend/Icons/ctype/denacharts_chart_line.svg

<svg xmlns="http://www.w3.org/2000/svg" width="16" height="16" viewBox="0 0 16 16"><path d="M3.844,10.844a.476.476,0,0,0,.718,0L6.5,8.906l1.781,1.813a1.06,1.06,0,0,0,1.438,0l5.125-5.157a.476.476,0,0,0,0-.718l-.688-.688a.476.476,0,0,0-.718,0L9,8.594,7.219,6.781a1.06,1.06,0,0,0-1.438,0L3.156,9.438a.476.476,0,0,0,0,.718ZM15.5,14H2V.5A.494.494,0,0,0,1.5,0H.5A.494.494,0,0,0,0,.5V15a.988.988,0,0,0,1,1H15.5a.494.494,0,0,0,.5-.5v-1A.494.494,0,0,0,15.5,14Z"/></svg>

<svg viewBox="0 0 16 16" xmlns="http://www.w3.org/2000/svg"><path d="m3.84 10.84a.47.47 0 0 0 .72 0l1.94-1.93 1.78 1.81a1.07 1.07 0 0 0 1.44 0l5.12-5.16a.47.47 0 0 0 0-.72l-.68-.68a.47.47 0 0 0 -.72 0l-4.44 4.43-1.78-1.81a1.07 1.07 0 0 0 -1.44 0l-2.62 2.66a.47.47 0 0 0 0 .72zm11.66 3.16h-13.5v-13.5a.5.5 0 0 0 -.5-.5h-1a.5.5 0 0 0 -.5.5v14.5a1 1 0 0 0 1 1h14.5a.5.5 0 0 0 .5-.5v-1a.5.5 0 0 0 -.5-.5z"/></svg>
